X: 43264
T: Woman Of The House, The
R: reel
M: 4/4
K: Gmajor
|:DBBA B3 A|GBAB eBdB|A2GB A3 (3Bcd|e~B3 gfed|
DBBA BcBA|GABd eBdB|A2GB A2 GA|1 BGAG EGED:|2 BGAG EFGB||
|:(f~f3) d edBd|effd edBd|(f~f3) d edBd|eaag abag|
~f3d edBd|gafg edBA|GAB(A A2)GA|1 BGAG EFGB:|2 BGAG EFGE||

